X: 2
T: Miss Ross  [Bb]
C: Niel Gow
B: Gow's 4th collection
R: strathspey
Z: 2009 John Chambers <jc:trillian.mit.edu>
M: C
L: 1/8
K: Bb
G \
| "Bb"F2 F>G F>G B>d | "Eb"c>B d>B "F7"c>B (G<B) \
| "Bb"F2 F>G "Gm"F>G B>g | "Bb"(f<B) "Cm"e>d "F7"c2 "Bb"B :|
e \
| "Bb"(d<f) f>g "Gm"(3fga b>d | "Cm"c>B d>B "F7"c>B (G<e) \
| "Bb"(d<f) f>g "Gm"(3fga b>d | "Cm"c>B e>d "F7"c2 "Bb"B>e |
| "Bb"(d<f) f>g "Gm"(3fga b>d | "Cm"c>B d>B "F7"c>B (G<e) \
| "Bb"F>B D>B "Gm"F>G B>g | "Bb"(f<B) "Cm"e>d "F7"c2 "Bb"B |]
